assets/svg/ic_track.svg

<?xml version="1.0" encoding="UTF-8"?>
<svg xmlns="http://www.w3.org/2000/svg" xmlns:xlink="http://www.w3.org/1999/xlink" width="64pt" height="64pt" viewBox="0 0 64 64" version="1.1">
<g id="surface1">
<path style=" stroke:none;fill-rule:nonzero;fill:rgb(0%,0%,0%);fill-opacity:1;" d="M 59.761719 31.832031 L 58.449219 30.738281 C 56.144531 28.824219 52.707031 28.480469 50.074219 29.90625 L 29.8125 40.90625 L 23.269531 39.042969 C 23.136719 39 22.980469 38.988281 22.832031 39.011719 L 16.832031 40.011719 C 16.46875 40.074219 16.167969 40.332031 16.050781 40.699219 C 15.9375 41.050781 16.03125 41.449219 16.292969 41.707031 L 20.53125 45.949219 L 17.175781 47.761719 L 10.875 41.46875 C 9.9375 40.519531 8.675781 40 7.34375 40 L 2 40 C 1.644531 40 1.3125 40.1875 1.136719 40.488281 C 0.957031 40.800781 0.957031 41.175781 1.125 41.488281 L 11.125 59.488281 C 11.300781 59.8125 11.644531 60 12 60 C 12.113281 60 12.230469 59.980469 12.34375 59.9375 L 21.449219 56.65625 L 22.011719 61.125 C 22.042969 61.425781 22.230469 61.707031 22.488281 61.863281 C 22.644531 61.949219 22.824219 62 23 62 C 23.125 62 23.25 61.980469 23.375 61.925781 L 28.375 59.925781 C 28.65625 59.8125 28.875 59.582031 28.957031 59.292969 L 30.75 53.3125 L 36.28125 51.324219 L 37 62.0625 C 37.019531 62.394531 37.207031 62.699219 37.5 62.863281 C 37.65625 62.957031 37.824219 63 38 63 C 38.15625 63 38.300781 62.96875 38.449219 62.894531 L 44.449219 59.894531 C 44.699219 59.769531 44.886719 59.550781 44.957031 59.28125 L 48.605469 46.886719 L 62.34375 41.9375 C 62.738281 41.800781 63 41.425781 63 41 L 63 38.75 C 63 36.074219 61.824219 33.550781 59.761719 31.832031 Z M 51.03125 31.667969 C 52.8125 30.699219 55.105469 30.855469 56.769531 32 L 50.925781 34.917969 L 47.269531 33.707031 Z M 19.082031 41.667969 L 22.9375 41.019531 L 27.300781 42.269531 L 22.363281 44.949219 Z M 27.175781 58.25 L 23.832031 59.59375 L 23.082031 53.613281 L 29.417969 50.800781 Z M 43.167969 58.300781 L 38.894531 60.4375 L 38.042969 47.644531 L 47.449219 43.730469 Z M 61 40.300781 L 49.300781 44.511719 L 49.957031 42.28125 C 50.074219 41.917969 49.957031 41.511719 49.667969 41.25 C 49.375 41 48.96875 40.925781 48.613281 41.074219 L 36.613281 46.074219 C 36.21875 46.238281 35.96875 46.636719 36 47.0625 L 36.144531 49.238281 L 31.46875 50.925781 L 31.957031 49.292969 C 32.074219 48.917969 31.957031 48.511719 31.65625 48.25 C 31.363281 47.988281 30.949219 47.925781 30.59375 48.082031 L 21.59375 52.082031 C 21.1875 52.261719 20.949219 52.6875 21.011719 53.125 L 21.199219 54.625 L 12.457031 57.769531 L 3.699219 42 L 7.34375 42 C 8.144531 42 8.894531 42.3125 9.46875 42.875 L 16.292969 49.707031 C 16.605469 50.019531 17.09375 50.09375 17.480469 49.875 L 44.863281 35.011719 L 50.6875 36.949219 C 50.792969 36.980469 50.894531 37 51 37 C 51.15625 37 51.300781 36.96875 51.449219 36.894531 L 58.488281 33.375 C 60.082031 34.707031 61 36.667969 61 38.75 Z M 61 40.300781 "/>
<path style=" stroke:none;fill-rule:nonzero;fill:rgb(0%,0%,0%);fill-opacity:1;" d="M 29 28 C 30.65625 28 32 26.65625 32 25 L 32 13 C 32 11.34375 30.65625 10 29 10 L 25 10 L 25 7 C 25 6.449219 24.550781 6 24 6 L 14 6 C 13.449219 6 13 6.449219 13 7 L 13 10 L 9 10 C 7.34375 10 6 11.34375 6 13 L 6 25 C 6 26.65625 7.34375 28 9 28 Z M 15 8 L 23 8 L 23 10 L 15 10 Z M 9 12 L 29 12 C 29.550781 12 30 12.449219 30 13 L 30 16 L 28 16 L 28 14 L 26 14 L 26 16 L 12 16 L 12 14 L 10 14 L 10 16 L 8 16 L 8 13 C 8 12.449219 8.449219 12 9 12 Z M 8 25 L 8 18 L 10 18 L 10 20 L 12 20 L 12 18 L 26 18 L 26 20 L 28 20 L 28 18 L 30 18 L 30 25 C 30 25.550781 29.550781 26 29 26 L 9 26 C 8.449219 26 8 25.550781 8 25 Z M 8 25 "/>
<path style=" stroke:none;fill-rule:nonzero;fill:rgb(0%,0%,0%);fill-opacity:1;" d="M 19 37 C 28.582031 37 36.425781 29.457031 36.949219 20 L 38 20 L 38 18 L 36.949219 18 C 36.425781 8.542969 28.582031 1 19 1 C 9.074219 1 1 9.074219 1 19 C 1 28.925781 9.074219 37 19 37 Z M 19 3 C 27.824219 3 35 10.175781 35 19 C 35 27.824219 27.824219 35 19 35 C 10.175781 35 3 27.824219 3 19 C 3 10.175781 10.175781 3 19 3 Z M 19 3 "/>
<path style=" stroke:none;fill-rule:nonzero;fill:rgb(0%,0%,0%);fill-opacity:1;" d="M 49.144531 6 L 51.144531 6 L 51.144531 8 L 49.144531 8 Z M 49.144531 6 "/>
<path style=" stroke:none;fill-rule:nonzero;fill:rgb(0%,0%,0%);fill-opacity:1;" d="M 53.144531 6 L 55.144531 6 L 55.144531 8 L 53.144531 8 Z M 53.144531 6 "/>
<path style=" stroke:none;fill-rule:nonzero;fill:rgb(0%,0%,0%);fill-opacity:1;" d="M 53.425781 12 L 55.425781 12 L 55.425781 14 L 53.425781 14 Z M 53.425781 12 "/>
<path style=" stroke:none;fill-rule:nonzero;fill:rgb(0%,0%,0%);fill-opacity:1;" d="M 56 18 L 58 18 L 58 20 L 56 20 Z M 56 18 "/>
<path style=" stroke:none;fill-rule:nonzero;fill:rgb(0%,0%,0%);fill-opacity:1;" d="M 62.980469 15.625 C 62.894531 14.730469 62.511719 13.886719 61.894531 13.238281 L 60.449219 14.625 C 60.761719 14.949219 60.949219 15.363281 60.988281 15.8125 Z M 62.980469 15.625 "/>
<path style=" stroke:none;fill-rule:nonzero;fill:rgb(0%,0%,0%);fill-opacity:1;" d="M 59.28125 14.019531 L 59.574219 12.042969 C 59.386719 12.011719 59.1875 12 59 12 L 57.425781 12 L 57.425781 14 L 59 14 C 59.09375 14 59.1875 14.011719 59.28125 14.019531 Z M 59.28125 14.019531 "/>
<path style=" stroke:none;fill-rule:nonzero;fill:rgb(0%,0%,0%);fill-opacity:1;" d="M 62.363281 18.167969 L 60.6875 17.082031 C 60.4375 17.457031 60.074219 17.75 59.65625 17.894531 L 60.3125 19.78125 C 61.144531 19.488281 61.886719 18.917969 62.363281 18.167969 Z M 62.363281 18.167969 "/>
<path style=" stroke:none;fill-rule:nonzero;fill:rgb(0%,0%,0%);fill-opacity:1;" d="M 52 18 L 54 18 L 54 20 L 52 20 Z M 52 18 "/>
<path style=" stroke:none;fill-rule:nonzero;fill:rgb(0%,0%,0%);fill-opacity:1;" d="M 45.144531 10.738281 C 45.050781 10.511719 45 10.261719 45 10 C 45 9.800781 45.03125 9.613281 45.082031 9.4375 L 43.167969 8.875 C 43.050781 9.238281 43 9.613281 43 10 C 43 10.511719 43.09375 11.011719 43.28125 11.488281 Z M 45.144531 10.738281 "/>
<path style=" stroke:none;fill-rule:nonzero;fill:rgb(0%,0%,0%);fill-opacity:1;" d="M 40 18 L 42 18 L 42 20 L 40 20 Z M 40 18 "/>
<path style=" stroke:none;fill-rule:nonzero;fill:rgb(0%,0%,0%);fill-opacity:1;" d="M 47 8 L 47.144531 8 L 47.144531 6 L 47 6 C 46.15625 6 45.355469 6.261719 44.675781 6.738281 L 45.84375 8.375 C 46.175781 8.125 46.582031 8 47 8 Z M 47 8 "/>
<path style=" stroke:none;fill-rule:nonzero;fill:rgb(0%,0%,0%);fill-opacity:1;" d="M 48 18 L 50 18 L 50 20 L 48 20 Z M 48 18 "/>
<path style=" stroke:none;fill-rule:nonzero;fill:rgb(0%,0%,0%);fill-opacity:1;" d="M 49.425781 12 L 51.425781 12 L 51.425781 14 L 49.425781 14 Z M 49.425781 12 "/>
<path style=" stroke:none;fill-rule:nonzero;fill:rgb(0%,0%,0%);fill-opacity:1;" d="M 44 18 L 46 18 L 46 20 L 44 20 Z M 44 18 "/>
<path style=" stroke:none;fill-rule:nonzero;fill:rgb(0%,0%,0%);fill-opacity:1;" d="M 47.425781 14 L 47.425781 12 L 47 12 C 46.644531 12 46.300781 11.90625 46 11.730469 L 45 13.457031 C 45.605469 13.8125 46.292969 14 47 14 Z M 47.425781 14 "/>
</g>
</svg>

<svg id="Layer_3" enable-background="new 0 0 64 64" height="512" viewBox="0 0 64 64" width="512" xmlns="http://www.w3.org/2000/svg"><path d="m59.762 31.833-1.316-1.097c-2.3-1.917-5.738-2.255-8.372-.829l-20.261 11-6.538-1.868c-.141-.041-.294-.05-.438-.025l-6 1c-.37.062-.674.324-.788.681s-.02.748.245 1.012l4.238 4.238-3.352 1.82-6.3-6.301c-.945-.944-2.201-1.464-3.537-1.464h-5.343c-.354 0-.683.188-.862.493-.18.306-.184.683-.012.993l10 18c.181.325.52.514.874.514.113 0 .228-.019.339-.059l9.111-3.28.558 4.463c.038.308.217.58.484.737.155.092.331.139.508.139.126 0 .252-.023.371-.071l5-2c.283-.113.499-.35.587-.642l1.792-5.974 5.535-1.993.716 10.746c.022.334.211.635.501.801.154.089.326.133.498.133.153 0 .307-.035.447-.105l6-3c.248-.124.434-.346.512-.612l3.646-12.397 13.734-4.944c.396-.144.661-.52.661-.942v-2.253c0-2.679-1.181-5.199-3.238-6.914zm-8.735-.167c1.788-.971 4.075-.814 5.745.33l-5.849 2.925-3.65-1.217zm-31.946 10.001 3.861-.644 4.36 1.246-4.938 2.681zm8.1 16.583-3.349 1.34-.748-5.978 6.333-2.814zm15.982.05-4.266 2.133-.853-12.785 9.404-3.918zm17.837-18.003-11.695 4.21.654-2.225c.109-.37-.004-.77-.291-1.027-.288-.257-.697-.328-1.053-.178l-12 5c-.395.165-.642.562-.613.989l.145 2.178-4.682 1.685.493-1.642c.112-.374-.004-.779-.297-1.038-.294-.259-.711-.322-1.067-.163l-9 4c-.402.179-.641.6-.586 1.038l.188 1.503-8.735 3.144-8.762-15.771h3.644c.802 0 1.556.312 2.122.878l6.828 6.829c.313.314.797.384 1.185.172l27.389-14.869 5.817 1.939c.103.034.21.051.316.051.154 0 .307-.036.447-.105l7.039-3.52c1.598 1.334 2.514 3.291 2.514 5.372z"/><path d="m29 28c1.654 0 3-1.346 3-3v-12c0-1.654-1.346-3-3-3h-4v-3c0-.552-.447-1-1-1h-10c-.553 0-1 .448-1 1v3h-4c-1.654 0-3 1.346-3 3v12c0 1.654 1.346 3 3 3zm-14-20h8v2h-8zm-6 4h20c.552 0 1 .449 1 1v3h-2v-2h-2v2h-14v-2h-2v2h-2v-3c0-.551.448-1 1-1zm-1 13v-7h2v2h2v-2h14v2h2v-2h2v7c0 .551-.448 1-1 1h-20c-.552 0-1-.449-1-1z"/><path d="m19 37c9.587 0 17.426-7.541 17.949-17h1.051v-2h-1.051c-.523-9.459-8.362-17-17.949-17-9.925 0-18 8.075-18 18s8.075 18 18 18zm0-34c8.822 0 16 7.178 16 16s-7.178 16-16 16-16-7.178-16-16 7.178-16 16-16z"/><path d="m49.144 6h2v2h-2z"/><path d="m53.144 6h2v2h-2z"/><path d="m53.429 12h2v2h-2z"/><path d="m56 18h2v2h-2z"/><path d="m62.981 15.621c-.084-.888-.47-1.733-1.087-2.38l-1.447 1.38c.309.324.502.746.544 1.189z"/><path d="m59.285 14.02.283-1.979c-.185-.027-.376-.041-.568-.041h-1.571v2h1.571c.097 0 .191.007.285.02z"/><path d="m62.365 18.163-1.682-1.082c-.242.376-.607.664-1.029.81l.654 1.89c.843-.292 1.574-.866 2.057-1.618z"/><path d="m52 18h2v2h-2z"/><path d="m45.143 10.744c-.095-.237-.143-.487-.143-.744 0-.193.027-.382.08-.562l-1.918-.566c-.107.364-.162.744-.162 1.128 0 .512.096 1.012.285 1.486z"/><path d="m40 18h2v2h-2z"/><path d="m46.998 8h.002.144v-2h-.143c-.001 0-.002 0-.003 0-.838 0-1.64.256-2.319.742l1.162 1.628c.339-.242.738-.37 1.157-.37z"/><path d="m48 18h2v2h-2z"/><path d="m49.429 12h2v2h-2z"/><path d="m44 18h2v2h-2z"/><path d="m47.429 14v-2h-.429c-.353 0-.697-.092-.998-.267l-1.004 1.73c.606.351 1.298.537 2.002.537z"/></svg>
